papirus/48x48/apps/gshutdown.svg

<?xml version="1.0" encoding="UTF-8" standalone="no"?>
<svg
   xmlns:dc="http://purl.org/dc/elements/1.1/"
   xmlns:cc="http://creativecommons.org/ns#"
   xmlns:rdf="http://www.w3.org/1999/02/22-rdf-syntax-ns#"
   xmlns:svg="http://www.w3.org/2000/svg"
   xmlns="http://www.w3.org/2000/svg"
   xmlns:sodipodi="http://sodipodi.sourceforge.net/DTD/sodipodi-0.dtd"
   xmlns:inkscape="http://www.inkscape.org/namespaces/inkscape"
   version="1.1"
   id="svg2"
   viewBox="0 0 48 48.000001"
   height="48"
   width="48"
   inkscape:version="0.91 r13725"
   sodipodi:docname="gshutdown.svg">
  <sodipodi:namedview
     pagecolor="#ffffff"
     bordercolor="#666666"
     borderopacity="1"
     objecttolerance="10"
     gridtolerance="10"
     guidetolerance="10"
     inkscape:pageopacity="0"
     inkscape:pageshadow="2"
     inkscape:window-width="1600"
     inkscape:window-height="849"
     id="namedview16"
     showgrid="false"
     inkscape:zoom="5.33"
     inkscape:cx="-8.3389831"
     inkscape:cy="24"
     inkscape:window-x="0"
     inkscape:window-y="0"
     inkscape:window-maximized="1"
     inkscape:current-layer="svg2" />
  <defs
     id="defs4" />
  <metadata
     id="metadata7">
    <rdf:RDF>
      <cc:Work
         rdf:about="">
        <dc:format>image/svg+xml</dc:format>
        <dc:type
           rdf:resource="http://purl.org/dc/dcmitype/StillImage" />
        <dc:title />
      </cc:Work>
    </rdf:RDF>
  </metadata>
  <circle
     style="opacity:1;fill:#4d4d4d;fill-opacity:1;stroke:none;stroke-width:10;stroke-miterlimit:4;stroke-dasharray:none;stroke-opacity:1"
     id="path4136"
     cx="24"
     cy="23.999983"
     r="20" />
  <circle
     style="opacity:0.2;fill:#000000;fill-opacity:1;stroke:none;stroke-width:10;stroke-miterlimit:4;stroke-dasharray:none;stroke-opacity:1"
     id="circle4154"
     cx="24"
     cy="24.999983"
     r="17.000017" />
  <circle
     r="17.000017"
     cy="23.999983"
     cx="24"
     id="circle4138"
     style="opacity:1;fill:#cb4444;fill-opacity:1;stroke:none;stroke-width:10;stroke-miterlimit:4;stroke-dasharray:none;stroke-opacity:1" />
  <path
     inkscape:connector-curvature="0"
     id="path4178"
     d="m 24,14 a 11,11 0 0 0 -0.410156,0.019 11,11 0 0 1 0.599609,-0.014 11,11 0 0 0 -0.189453,0 z m 0.464844,0.016 a 11,11 0 0 1 0.625,0.049 11,11 0 0 0 -0.625,-0.049 z m -1.400391,0.031 a 11,11 0 0 0 -0.5625,0.068 11,11 0 0 1 0.5625,-0.068 z m 2.568359,0.084 a 11,11 0 0 1 0.560547,0.1015 11,11 0 0 0 -0.560547,-0.1015 z m -3.667968,0.064 a 11,11 0 0 0 -0.513672,0.1172 11,11 0 0 1 0.513672,-0.1172 z m 4.726562,0.1485 a 11,11 0 0 1 0.56836,0.1621 11,11 0 0 0 -0.56836,-0.1621 z m -5.810547,0.1152 a 11,11 0 0 0 -0.478515,0.1601 11,11 0 0 1 0.478515,-0.1601 z m 6.9375,0.2324 a 11,11 0 0 1 0.296875,0.1133 11,11 0 0 0 -0.296875,-0.1133 z m -7.814453,0.072 A 11,11 0 0 0 13,25 11,11 0 0 0 24,36 11,11 0 0 0 35,25 11,11 0 0 0 28.326172,14.9004 l -0.783203,1.8301 A 9.0000172,9.0000172 0 0 1 33,25 a 9.0000172,9.0000172 0 0 1 -9,9 9.0000172,9.0000172 0 0 1 -9,-9 9.0000172,9.0000172 0 0 1 5.726562,-8.3828 l -0.722656,-1.8535 z"
     style="opacity:0.2;fill:#000000;fill-opacity:1;stroke:none;stroke-width:10;stroke-miterlimit:4;stroke-dasharray:none;stroke-opacity:1" />
  <path
     inkscape:connector-curvature="0"
     style="opacity:1;fill:#ffffff;fill-opacity:1;stroke:none;stroke-width:10;stroke-miterlimit:4;stroke-dasharray:none;stroke-opacity:1"
     d="M 24,13 A 11,11 0 0 0 23.589844,13.01953 11,11 0 0 1 24.189453,13.00586 11,11 0 0 0 24,13 Z m 0.464844,0.01563 a 11,11 0 0 1 0.625,0.04883 11,11 0 0 0 -0.625,-0.04883 z m -1.400391,0.03125 a 11,11 0 0 0 -0.5625,0.06836 11,11 0 0 1 0.5625,-0.06836 z m 2.568359,0.08398 a 11,11 0 0 1 0.560547,0.101563 11,11 0 0 0 -0.560547,-0.101563 z m -3.667968,0.06445 a 11,11 0 0 0 -0.513672,0.117188 11,11 0 0 1 0.513672,-0.117188 z m 4.726562,0.148438 a 11,11 0 0 1 0.56836,0.162109 11,11 0 0 0 -0.56836,-0.162109 z m -5.810547,0.115234 a 11,11 0 0 0 -0.478515,0.160157 11,11 0 0 1 0.478515,-0.160157 z m 6.9375,0.232422 a 11,11 0 0 1 0.296875,0.113282 11,11 0 0 0 -0.296875,-0.113282 z m -7.814453,0.07227 A 11,11 0 0 0 13,24 11,11 0 0 0 24,35 11,11 0 0 0 35,24 11,11 0 0 0 28.326172,13.900391 l -0.783203,1.830078 A 9.0000172,9.0000172 0 0 1 33,24 a 9.0000172,9.0000172 0 0 1 -9,9 9.0000172,9.0000172 0 0 1 -9,-9 9.0000172,9.0000172 0 0 1 5.726562,-8.382812 l -0.722656,-1.853516 z"
     id="circle4142" />
  <rect
     y="11.499983"
     x="23"
     height="8.9999657"
     width="2"
     id="rect4176"
     style="opacity:0.3;fill:#000000;fill-opacity:1;stroke:none;stroke-width:10;stroke-miterlimit:4;stroke-dasharray:none;stroke-opacity:1" />
  <rect
     style="opacity:1;fill:#ffffff;fill-opacity:1;stroke:none;stroke-width:10;stroke-miterlimit:4;stroke-dasharray:none;stroke-opacity:1"
     id="rect4154"
     width="2"
     height="8.9999657"
     x="23"
     y="10.999983" />
  <path
     inkscape:connector-curvature="0"
     style="opacity:0.2;fill:#ffffff;fill-opacity:1;stroke:none;stroke-width:10;stroke-miterlimit:4;stroke-dasharray:none;stroke-opacity:1"
     d="M 24,4 A 20,20 0 0 0 4.140625,21.851562 20,18.999983 0 0 1 24,5 20,18.999983 0 0 1 43.921875,22.447266 20,20 0 0 0 24,4 Z M 43.921875,22.447266 A 20,20 0 0 1 44,24 20,18.999983 0 0 0 43.921875,22.447266 Z M 4.140625,21.851562 A 20,18.999983 0 0 0 4.091797,22.244141 20,20 0 0 1 4.140625,21.851562 Z M 4.091797,22.244141 A 20,20 0 0 0 4,24 20,18.999983 0 0 1 4.0917969,22.244141 Z"
     id="circle4156" />
  <path
     inkscape:connector-curvature="0"
     id="path4164"
     d="M 24,44 A 20,20 0 0 1 4.140625,26.1484 20,18.999983 0 0 0 24,43 20,18.999983 0 0 0 43.921875,25.5527 20,20 0 0 1 24,44 Z M 43.921875,25.5527 A 20,20 0 0 0 44,24 20,18.999983 0 0 1 43.92187,25.5527 Z M 4.140625,26.1484 A 20,18.999983 0 0 1 4.091797,25.7559 20,20 0 0 0 4.140625,26.1484 Z M 4.091797,25.7559 A 20,20 0 0 1 4,24 20,18.999983 0 0 0 4.091797,25.7559 Z"
     style="opacity:0.3;fill:#000000;fill-opacity:1;stroke:none;stroke-width:10;stroke-miterlimit:4;stroke-dasharray:none;stroke-opacity:1" />
</svg>

<?xml version="1.0" encoding="UTF-8" standalone="no"?>
<svg id="svg2" xmlns:rdf="http://www.w3.org/1999/02/22-rdf-syntax-ns#" xmlns="http://www.w3.org/2000/svg" height="48" width="48" version="1.1" xmlns:cc="http://creativecommons.org/ns#" viewBox="0 0 48 48.000001" xmlns:dc="http://purl.org/dc/elements/1.1/">
 <metadata id="metadata7">
  <rdf:RDF>
   <cc:Work rdf:about="">
    <dc:format>image/svg+xml</dc:format>
    <dc:type rdf:resource="http://purl.org/dc/dcmitype/StillImage"/>
    <dc:title/>
   </cc:Work>
  </rdf:RDF>
 </metadata>
 <circle id="path4136" cy="24" cx="24" r="20" fill="#4d4d4d"/>
 <circle id="circle4154" opacity=".2" cy="25" cx="24" r="17"/>
 <circle id="circle4138" cx="24" cy="24" r="17" fill="#cb4444"/>
 <path id="path4178" opacity=".2" d="m24 14a11 11 0 0 0 -0.41016 0.019 11 11 0 0 1 0.59961 -0.014 11 11 0 0 0 -0.18945 0zm0.46484 0.016a11 11 0 0 1 0.625 0.049 11 11 0 0 0 -0.625 -0.049zm-1.4004 0.031a11 11 0 0 0 -0.5625 0.068 11 11 0 0 1 0.5625 -0.068zm2.5684 0.084a11 11 0 0 1 0.56055 0.1015 11 11 0 0 0 -0.56055 -0.1015zm-3.668 0.064a11 11 0 0 0 -0.51367 0.1172 11 11 0 0 1 0.51367 -0.1172zm4.7266 0.1485a11 11 0 0 1 0.56836 0.1621 11 11 0 0 0 -0.56836 -0.1621zm-5.8105 0.1152a11 11 0 0 0 -0.47852 0.1601 11 11 0 0 1 0.47852 -0.1601zm6.9375 0.2324a11 11 0 0 1 0.29688 0.1133 11 11 0 0 0 -0.29688 -0.1133zm-7.8145 0.072a11 11 0 0 0 -7.006 10.237 11 11 0 0 0 11 11 11 11 0 0 0 11 -11 11 11 0 0 0 -6.674 -10.1l-0.7832 1.8301a9 9 0 0 1 5.457 8.27 9 9 0 0 1 -9 9 9 9 0 0 1 -9 -9 9 9 0 0 1 5.7266 -8.3828l-0.72266-1.8535z"/>
 <path id="circle4142" d="m24 13a11 11 0 0 0 -0.41 0.02 11 11 0 0 1 0.599 -0.014 11 11 0 0 0 -0.189 -0.006zm0.46484 0.01563a11 11 0 0 1 0.625 0.04883 11 11 0 0 0 -0.625 -0.04883zm-1.4004 0.03125a11 11 0 0 0 -0.5625 0.06836 11 11 0 0 1 0.5625 -0.06836zm2.5684 0.08398a11 11 0 0 1 0.56055 0.10156 11 11 0 0 0 -0.56055 -0.10156zm-3.668 0.06445a11 11 0 0 0 -0.51367 0.11719 11 11 0 0 1 0.51367 -0.11719zm4.7266 0.14844a11 11 0 0 1 0.56836 0.16211 11 11 0 0 0 -0.56836 -0.16211zm-5.8105 0.11523a11 11 0 0 0 -0.47852 0.16016 11 11 0 0 1 0.47852 -0.16016zm6.9375 0.23242a11 11 0 0 1 0.29688 0.11328 11 11 0 0 0 -0.29688 -0.11328zm-7.8145 0.07227a11 11 0 0 0 -7.006 10.238 11 11 0 0 0 11 11 11 11 0 0 0 11 -11 11 11 0 0 0 -6.674 -10.1l-0.7832 1.8301a9 9 0 0 1 5.457 8.27 9 9 0 0 1 -9 9 9 9 0 0 1 -9 -9 9 9 0 0 1 5.7266 -8.3828l-0.72266-1.8535z" fill="#fff"/>
 <rect id="rect4176" opacity=".2" height="9" width="2" y="11.5" x="23"/>
 <rect id="rect4154" height="9" width="2" y="11" x="23" fill="#fff"/>
 <path id="circle4156" opacity=".1" d="m24 4a20 20 0 0 0 -19.859 17.852 20 19 0 0 1 19.859 -16.852 20 19 0 0 1 19.922 17.447 20 20 0 0 0 -19.922 -18.447zm19.922 18.447a20 20 0 0 1 0.078 1.553 20 19 0 0 0 -0.078 -1.553zm-39.781-0.595a20 19 0 0 0 -0.0488 0.392 20 20 0 0 1 0.0488 -0.392zm-0.0488 0.392a20 20 0 0 0 -0.0918 1.756 20 19 0 0 1 0.0918 -1.756z" fill="#fff"/>
 <path id="path4164" opacity=".2" d="m24 45a20 20 0 0 1 -19.859 -17.852 20 19 0 0 0 19.859 16.852 20 19 0 0 0 19.922 -17.447 20 20 0 0 1 -19.922 18.447zm19.922-18.447a20 20 0 0 0 0.078 -1.553 20 19 0 0 1 -0.078 1.553zm-39.781 0.595a20 19 0 0 1 -0.0488 -0.392 20 20 0 0 0 0.0488 0.392zm-0.0488-0.392a20 20 0 0 1 -0.0918 -1.756 20 19 0 0 0 0.0918 1.756z"/>
</svg>
